X:152
T: ALS DIE JUDN DEN HERRN CHRISTUM GEFANGN GENOMMN GEHABT
N: Z0151
O: Europa, Mitteleuropa, Deutschland, Bayern
R: Erzaehlung, lustige Romanze
M: 6/8
L: 1/16
K: F
CC | F2F2FFA2G2FF | EGC4z4
C2 | F2F2F2A2G2F2 | c4z6
A2 | B2B2B2d2c2B2 | AcF4z4
A2 | G2A2B2C2D2E2 | F4z6

@@@ Tune index: 9910
